X: 88
T:U lijepom starom gradu Visegradu
S:Huws Jones & Velagic, Sevdah: Traditional Music from Bosnia, 1997
M:2/4
L:1/8
Q:1/4=104
K:F#Loc
P:Intro
{D^D}EB     c/B/A/G/|   FG    A2   |\
     B,A    B/A/G/F/|   EE/F/ G>B, |
     E^D/E/ FE/F/   |   GF/G/ AG/F/|\
     AG/F/  EF/G/   |[1 F2    z2  :|\
                     [2 F4-        |F2 z2||
P:Verse
EB BB|c2    B2|[M:3/4] AG  GA GA/G/|[M:2/4] F4-|F2z2|
EB BB|c2    B2|[M:3/4] A>B cd c2   |[M:2/4] B4-|B2z2|
EB BB|c2    B2|[M:3/4] AG  GA GA/G/|[M:2/4] F4-|F2z2|
AA AA|B/A/G G2|[M:3/4] GA  AG F2   |[M:2/4] F4-|F2z2|
AA AA|B/A/G G2|[M:3/4] GA  AG F2   |[M:2/4] F4-|F4 |]

